X: 1
T: Will You Go and Marry Ketty
M: 4/4
L: 1/8
R: strathspey
K: Gmaj
|: B>G (3GGG c>AB<g | B>G (3GGG B>d A2 | B>G (3GGG c>A (3Bcd | (3efg d>g B<g A2 :|
|: B<d (3def g>de>g | B<dd>e g>B A2 | B<d (3def g>fe>d | e<gd>g B<g A2 :|
